{
    "compressionlevel": -1,
    "orientation": "orthogonal",
    "renderorder": "right-down",
    "tiledversion": "1.10.2",
    "version": "1.9",
    "type": "map",
    "width": 20,
    "height": 10,
    "tilewidth": 16,
    "tileheight": 16,
    "infinite": false,
    "nextlayerid": 2,
    "nextobjectid": 1,
    "layers": [
        {
            "id": 1,
            "name": "Level",
            "type": "tilelayer",
            "width": 20,
            "height": 10,
            "x": 0,
            "y": 0,
            "opacity": 1,
            "visible": true,
            "data": [
                0,
                0,
                0,
                0,
                0,
                0,
                0,
                0,
                0,
                0,
                0,
                0,
                0,
                0,
                0,
                0,
                0,
                0,
                0,
                0,
                0,
                0,
                0,
                0,
                0,
                0,
                0,
                0,
                0,
                0,
                0,
                0,
                0,
                0,
                0,
                0,
                0,
                0,
                0,
                0,
                0,
                0,
                0,
                0,
                0,
                0,
                0,
                0,
                0,
                0,
                0,
                0,
                0,
                0,
                0,
                0,
                0,
                0,
                0,
                0,
                0,
                0,
                0,
                0,
                0,
                0,
                0,
                0,
                0,
                0,
                0,
                0,
                0,
                0,
                0,
                0,
                0,
                0,
                0,
                0,
                0,
                0,
                0,
                0,
                0,
                0,
                0,
                0,
                0,
                0,
                0,
                0,
                0,
                0,
                0,
                0,
                0,
                0,
                0,
                0,
                0,
                0,
                0,
                0,
                0,
                0,
                0,
                0,
                0,
                0,
                0,
                0,
                27,
                27,
                27,
                0,
                0,
                0,
                0,
                0,
                0,
                0,
                0,
                0,
                0,
                451,
                451,
                451,
                451,
                0,
                0,
                0,
                0,
                0,
                0,
                0,
                0,
                0,
                0,
                0,
                0,
                0,
                0,
                0,
                0,
                429,
                429,
                429,
                429,
                0,
                0,
                0,
                0,
                0,
                0,
                0,
                0,
                0,
                0,
                0,
                27,
                27,
                27,
                27,
                27,
                27,
                27,
                27,
                27,
                27,
                27,
                27,
                27,
                27,
                27,
                27,
                27,
                27,
                27,
                27,
                27,
                27,
                27,
                27,
                27,
                27,
                27,
                27,
                27,
                27,
                27,
                27,
                27,
                27,
                27,
                27,
                27,
                27,
                27,
                27
            ]
        }
    ],
    "tilesets": [
        {
            "firstgid": 1,
            "name": "Tiles",
            "image": "Tiles.png",
            "imagewidth": 400,
            "imageheight": 400,
            "tilewidth": 16,
            "tileheight": 16,
            "tilecount": 625,
            "columns": 25,
            "margin": 0,
            "spacing": 0
        }
    ]
}